X:3694
L:1/16
Q:1/4=56
M:2/4
K:Dmin
 z6 d2 |"Gm" d2(dc"Dm" A2)(cB |"Gm" G2)(BA"Dm" F2)(AG |"A" E2)(GF"Dm" D2)(FE | DEFG A2)d2 | 
"Gm" d2(dc"Dm" A2)(cB |"Gm" G2)(BA"Dm" F2)AG |"A" FEFG (AGFE |"Dm" D2).A,2 !breath!.D A,DF | 
"Dm" A2A2 BA^GB | A2F2 ^G2A2 |"A" B2^c2 (edcB |"Dm" A2).F2 !breath!.D A,DF |"Dm" A2A2 BA^GB | 
 A2F2 ^G2A2 |"A" B2^c2 (edcB |"Dm" A2).F2 !breath!.D A^GA |"Gm" B2(BA) (AG)(GF) |"Dm" F2E2 F2^G2 | 
"A" A2B2 (^cBA^G |"Dm" A2).F2 !breath!.D A^GA | B2(BA) (AG)(GF) | F2E2 F2^G2 |"A" A2B2 (AGFE | 
"Dm" D2).A,2 .D4 |]

